assets/battery-half.svg

<svg xmlns="http://www.w3.org/2000/svg" fill="none" viewBox="0 0 27 14">
  <path fill="#2A2238" d="M3.375 3.975c0-.33137.26863-.6.6-.6h6.15v6.75h-6.15c-.33137 0-.6-.26863-.6-.6v-5.55Z"/>
  <path fill="#2A2238" d="M3.375 0C2.47989 0 1.62145.355579.988515.988514.355579 1.62145 0 2.47989 0 3.375v6.75c0 .8951.355579 1.7535.988515 2.3865.632935.6329 1.491375.9885 2.386485.9885H20.25c.8951 0 1.7535-.3556 2.3865-.9885.6329-.633.9885-1.4914.9885-2.3865v-6.75c0-.89511-.3556-1.75355-.9885-2.386486C22.0035.355579 21.1451 0 20.25 0H3.375ZM20.25 1.6875c.4476 0 .8768.17779 1.1932.49426.3165.31647.4943.74569.4943 1.19324v6.75c0 .4476-.1778.8768-.4943 1.1932-.3164.3165-.7456.4943-1.1932.4943H3.375c-.44755 0-.87678-.1778-1.19324-.4943-.31647-.3164-.49426-.7456-.49426-1.1932v-6.75c0-.44755.17779-.87677.49426-1.19324.31646-.31647.74569-.49426 1.19324-.49426H20.25ZM27 6.75c0 .67133-.2667 1.31516-.7414 1.78986-.4747.47471-1.1185.74139-1.7898.74139v-5.0625c.6713 0 1.3151.26668 1.7898.74139C26.7333 5.43484 27 6.07867 27 6.75Z"/>
</svg>

<svg width="27" height="14" viewBox="0 0 27 14" fill="none" xmlns="http://www.w3.org/2000/svg">
<path d="M3.375 3.975C3.375 3.64363 3.64363 3.375 3.975 3.375H10.125V10.125H3.975C3.64363 10.125 3.375 9.85637 3.375 9.525V3.975Z" fill="#2A2238"/>
<path d="M3.375 0C2.47989 0 1.62145 0.355579 0.988515 0.988514C0.355579 1.62145 0 2.47989 0 3.375L0 10.125C0 11.0201 0.355579 11.8785 0.988515 12.5115C1.62145 13.1444 2.47989 13.5 3.375 13.5H20.25C21.1451 13.5 22.0035 13.1444 22.6365 12.5115C23.2694 11.8785 23.625 11.0201 23.625 10.125V3.375C23.625 2.47989 23.2694 1.62145 22.6365 0.988514C22.0035 0.355579 21.1451 0 20.25 0H3.375ZM20.25 1.6875C20.6976 1.6875 21.1268 1.86529 21.4432 2.18176C21.7597 2.49823 21.9375 2.92745 21.9375 3.375V10.125C21.9375 10.5726 21.7597 11.0018 21.4432 11.3182C21.1268 11.6347 20.6976 11.8125 20.25 11.8125H3.375C2.92745 11.8125 2.49822 11.6347 2.18176 11.3182C1.86529 11.0018 1.6875 10.5726 1.6875 10.125V3.375C1.6875 2.92745 1.86529 2.49823 2.18176 2.18176C2.49822 1.86529 2.92745 1.6875 3.375 1.6875H20.25ZM27 6.75C27 7.42133 26.7333 8.06516 26.2586 8.53986C25.7839 9.01457 25.1401 9.28125 24.4688 9.28125V4.21875C25.1401 4.21875 25.7839 4.48543 26.2586 4.96014C26.7333 5.43484 27 6.07867 27 6.75Z" fill="#2A2238"/>
</svg>
